X: 22696
T: Lament For Charles MacCabe
R: waltz
M: 3/4
K: Aminor
AG|A2 cA AG|A2 A2 A^c|d2 d^c de|f2 f2 ed|e2 e2 ed|
cA A2 A^c|d2 ef ed|d2 d2 z^c|de f2 ed|e2 e2 ed|
c2 d2 cA|A2 A2 ag|f2 e2 ed|dc ed cA|GE D2 EG|A2 A2||

